X: 29710
T: Nth
R: strathspey
M: 4/4
K: Dmajor
|:[F3/2f3/2[^E/^e/] [F/f/][A3/2a3/2] d2 c>d|e>^de<g B2 e>=d|c>Ac>e b>a (3gfe|1 d>cd<f A2 (3[Aa][^G^g][=G=g]:|2 d2 (3cdc B2 (3A^G=G||
|:F>Ad>c e>dc<d|B<GB>d b4|1 a>^gb>a =g>ec<e|d<ce>d A2- A>G:|2 c'>bg>e b>a (3gfe|f<Ae<A d4||

